!!!COM:	de Orto, Marbrianus
!!!CDT:	~1460///-1529//
!!!OPR:	Missa Dominicalis
!!!ONM:	1
!!!OTL:	Kyrie
!!!AGN:	Mass; Kyrie
!!!SCT:	Ort1001a
!!!SCA:	Ort1001a
!!!voices:	4
!!!voices-OPR:	4
**kern	**kern	**kern	**kern
*staff4	*staff3	*staff2	*staff1
*Ivox	*Ivox	*Ivox	*Ivox
*I"Bassus	*I"Tenor	*I"Altus	*I"Discantus
*I'B	*I'T	*I'A	*I'D
*>[A,B,C]	*>[A,B,C]	*>[A,B,C]	*>[A,B,C]
*>A	*>A	*>A	*>A
*clefF4	*clefGv2	*clefGv2	*clefG2
*k[b-]	*k[b-]	*k[b-]	*k[b-]
*M3/1	*M3/1	*M3/1	*M3/1
*met(O)	*met(O)	*met(O)	*met(O)
!!section: Kyrie I
!!!OMD: Kyrie I
=1-	=1-	=1-	=1-
1r	0.r	2d\	0.r
.	.	2.e-i\	.
1D	.	.	.
.	.	4d\	.
.	.	1d	.
1E-i	.	.	.
.	.	2c\	.
=2	=2	=2	=2
2D\	0.r	2d\	2dd\
1C	.	2.g\	2.ee-i\
.	.	4f\	4dd\
2D\	.	2d\	1dd
1A	.	1e	.
.	.	.	2cc\
=3	=3	=3	=3
0.r	2d\	2d\	2dd\
.	2.e-i\	1c	2.g/
.	4d\	.	4f/
.	1d	2B-\	2d/
.	.	1A	1e
.	2c\	.	.
=4	=4	=4	=4
2G\	[0.d	2B-\	2d/
2F\	.	2A/	2f/
2.B-\	.	2G/	2g/
.	.	2.d\	2.b-\
4A\	.	.	.
1G	.	.	.
.	.	4c\	4a/
.	.	2B-\	2g/
=5	=5	=5	=5
1D	0.d]	2A/	2f/
.	.	2.F/	2.a/
2F\	.	.	.
.	.	8G/L	4g/
.	.	8A/J	.
2G\	.	2B-\	1g
1D	.	1A	.
.	.	.	2f#i/
=6	=6	=6	=6
1.d	0.G	2B-\	2g/
.	.	2G/	2.b-\
.	.	1g	.
.	.	.	4g/
1B-	.	.	2.dd\
.	.	2g\	.
.	.	.	4cc\
2G\	.	4d\	2b-\
.	.	4e\	.
=7	=7	=7	=7
1.F	0.r	4f\	2a/
.	.	4g\	.
.	.	2.a\	2.cc\
.	.	4g\	4b-\
2G\	.	2e\	2g/
1d	.	1f#i	1a
=8	=8	=8	=8
0G	1r	1g	1g
.	1B-	2r	1d
.	.	2G/	.
2F\	2c\	2A/	1f
2D\	2d\	2B-\	.
=9	=9	=9	=9
0C	0e-	0c	1g
.	.	.	2.g/
.	.	.	4a/
1G	1d	2r	1b-
.	.	2d\	.
=10	=10	=10	=10
2.F\	2r	2.f\	1a
.	2.c\	.	.
4E\	.	4g\	.
2F\	.	2a\	1r
.	4B-\	.	.
2G\	4A/	2d\	.
.	4G/	.	.
1A	1F#i	4f\	1r
.	.	4e\	.
.	.	4d\	.
.	.	4c\	.
=11	=11	=11	=11
1.G	1G	2.B-\	2.dd\
.	.	4A/	4cc\
.	2r	2G/	2b-\
2F\	2d\	2A/	2a/
2C/	2e-i\	2c\	2g/
2D\	2d\	2A/	2f/
=12	=12	=12	=12
2E\	2c\	2G/	2g/
2D\	2d\	2F/	2a/
1r	2r	4G/	2b-\
.	.	4A/	.
.	2G/	4B-\	4a/
.	.	4c\	4g/
2r	2B-\	4d\	2f/
.	.	4e\	.
2F\	2c\	[2f\	2a/
=13	=13	=13	=13
2D\	2d\	2f\]	2b-\
1C	2.e-i\	2.g\	2.cc\
.	4d\	4f\	4b-\
2C/	4c\	2e\	4a/
.	4B-\	.	4g/
1D	1A	[1dl	2.f#i/
.	.	.	4e/
=14	=14	=14	=14
1r	0.Gl	0.d]	0.gl
0Gl	.	.	.
!!LO:LB:i:g=z
=15||	=15||	=15||	=15||
*>B	*>B	*>B	*>B
*clefF4	*clefGv2	*clefGv2	*clefG2
*k[b-]	*k[b-]	*k[b-]	*k[b-]
*M2/1	*M2/1	*M2/1	*M2/1
*met(C)	*met(C)	*met(C)	*met(C)
!!section: Christe
!!!OMD: Christe
1D	0r	0r	0r
2C/	.	.	.
[2G\	.	.	.
=16	=16	=16	=16
2G\]	0r	1d	0r
2F\	.	.	.
2A\	.	2c\	.
2G\	.	[2g\	.
=17	=17	=17	=17
1B-	0r	2g\]	0r
.	.	1f	.
2A\	.	.	.
2G\	.	2g\	.
=18	=18	=18	=18
1B-	0r	2f\	0r
.	.	2.g\	.
1A	.	.	.
.	.	8f#i\L	.
.	.	8e\J	.
.	.	2f#i\	.
=19	=19	=19	=19
2G\	0r	2.g\	0r
1B-	.	.	.
.	.	4f\	.
.	.	4e\	.
.	.	4d\	.
[2A\	.	2f\	.
=20	=20	=20	=20
4A\]	0r	2e\	0r
4G\	.	.	.
2F\	.	1d	.
1E	.	.	.
.	.	2c#i\	.
=21	=21	=21	=21
2.D\	0r	1d	1d
4E\	.	.	.
4F\	.	1r	1c
4G\	.	.	.
2A\	.	.	.
=22	=22	=22	=22
2B-\	0r	0r	1g
2c\	.	.	.
2d\	.	.	2f/
[2e\	.	.	[2g/
=23	=23	=23	=23
4e\]	0r	1r	4g/]
4d\	.	.	4f/
1d	.	.	2d/
.	.	1A	1e
2c#i\	.	.	.
=24	=24	=24	=24
1d	[0d	2.B-\	2.d/
.	.	8A/L	4e/
.	.	8G/J	.
2.D\	.	2.F/	4f/
.	.	.	4g/
.	.	.	[2a/
4E\	.	4G/	.
=25	=25	=25	=25
2F\	0d]	2A/	2a/]
2G\	.	2B-\	2g/
2D\	.	2A/	2f/
2G\	.	2B-\	[2g/
=26	=26	=26	=26
2E\	0c	2G/	2g/]
2F\	.	2F/	2.a/
1A	.	1c	.
.	.	.	4b-\
.	.	.	2cc\
=27	=27	=27	=27
1G	[0g	2d\	1b-
.	.	2.e-i\	.
2r	.	.	2cc\
.	.	4d\	.
2G\	.	2B-\	2dd\
=28	=28	=28	=28
1C	0g_	2c\	2.ee-i\
.	.	2e-i\	.
.	.	.	4dd\
2G\	.	2d\	2b-\
2C/	.	2c\	[2cc\
=29	=29	=29	=29
1G	0g]	1d	2cc\]
.	.	.	2b-\
1r	.	2c\	2cc\
.	.	[2B-\	[2dd\
=30	=30	=30	=30
1r	0f	1B-]	2dd\]
.	.	.	4cc\
.	.	.	4b-\
1D	.	1d	1a
=31	=31	=31	=31
2E\	1g	2r	1g
1G	.	2B-\	.
.	1r	1A	1r
2F\	.	.	.
=32	=32	=32	=32
1B-	0r	1G	1d
2A\	.	1r	2e/
4G\	.	.	[2g/
4A\	.	.	.
=33	=33	=33	=33
4B-\	0r	1r	2g/]
4c\	.	.	.
1d	.	.	2f/
.	.	2r	1b-
2B-\	.	2d\	.
=34	=34	=34	=34
2.c\	0r	2.e\	2a/
.	.	.	2g/
8B-\L	.	4f\	.
8A\J	.	.	.
1G	.	2.g\	2r
.	.	.	[2dd\
.	.	4f\	.
=35	=35	=35	=35
1B-	0r	2.d\	2dd\]
.	.	.	2b-\
.	.	4e\	.
2.A\	.	4f\	2.cc\
.	.	4e\	.
.	.	[2c\	.
4G\	.	.	8b-/L
.	.	.	8a/J
=36	=36	=36	=36
1E	0r	2c\]	1g
.	.	2c\	.
1D	.	1d	1f
=37	=37	=37	=37
2C/	0r	0r	2.g/
2.G\	.	.	.
.	.	.	4f/
.	.	.	4e/
4F\	.	.	4d/
2D\	.	.	[2d/
=38	=38	=38	=38
1E	1r	1g	2d/]
.	.	.	2c#i/
1D	1f	2.a\	1d
.	.	4g\	.
=39	=39	=39	=39
2C/	2.g\	2.e\	0r
1c	.	.	.
.	4f\	8f\L	.
.	.	8g\J	.
.	4e\	2a\	.
.	4d\	.	.
2B-\	[2d\	[2g\	.
=40	=40	=40	=40
1A	2d\]	2g\]	2r
.	2c\	2f\	2a/
2G\	1d	2g\	2b-\
[2B-\	.	2f\	[2dd\
=41	=41	=41	=41
4B-\]	2r	1d	4dd\]
4A\	.	.	4cc\
2G\	1d	.	2b-\
2F\	.	1f	1a
2A\	2c\	.	.
=42	=42	=42	=42
2G\	2d\	1g	2b-\
2C/	2e-\	.	2g/
1D	2d\	2r	2f/
.	4c\	[2f\	[2a/
.	4B-\	.	.
=43	=43	=43	=43
1F	1A	4f\]	4a/]
.	.	4g\	4g/
.	.	2a\	4f/
.	.	.	4e/
2G\	2B-\	2g\	2d/
2C/	[2c\	2e\	2g/
=44	=44	=44	=44
1F	4c\]	2c\	2a/
.	4B-\	.	.
.	4A/	2f\	2cc\
.	4G/	.	.
[1G	2.d\	2d\	2b-\
.	.	[2g\	[2dd\
.	4c\	.	.
=45	=45	=45	=45
1G]	4B-\	4g\]	4dd\]
.	4A/	4f\	4cc\
.	2G/	4d\	2b-\
.	.	4e\	.
1F	2c\	1f	2a/
.	2A/	.	2cc\
=46	=46	=46	=46
2G\	1d	2r	2b-\
2D\	.	1d	2.a/
1E-i	1G	.	.
.	.	.	4g/
.	.	2c\	[2g/
=47	=47	=47	=47
1D	1A	0dl	2g/]
.	.	.	2f#i/
1Gl	1Gl	.	1gl
!!LO:LB:i:g=z
=48||	=48||	=48||	=48||
*>C	*>C	*>C	*>C
*clefF4	*clefGv2	*clefGv2	*clefG2
*k[b-]	*k[b-]	*k[b-]	*k[b-]
*M3/1	*M3/1	*M3/1	*M3/1
*met(O)	*met(O)	*met(O)	*met(O)
!!section: Kyrie II
!!!OMD: Kyrie II
1G	0.d	1G	0.r
2F\	.	1A	.
2D\	.	.	.
1G	.	1B-	.
=49	=49	=49	=49
0C	0e-i	0c	0g
2.G\	1d	1B-	1b-
4D\	.	.	.
=50	=50	=50	=50
1F	2c\	2c\	1a
.	2d\	2f\	.
2r	2G/	2d\	2.b-\
2G\	2B-\	4d\	.
.	.	2e\	4a/
2E\	2c\	.	2g/
.	.	2c\	.
2D\	2d\	.	2f/
.	.	4B-\	.
=51	=51	=51	=51
1.C	2.e-i\	2c\	2.g/
.	.	4B-\	.
.	4d\	4A/	4f/
.	2c\	1G	2e/
2G\	2B-\	.	2d/
2E\	2.c\	2r	2g/
[2F\	.	2c\	[2a/
.	4B-\	.	.
=52	=52	=52	=52
2F\]	2A/	2f\	4a/]
.	.	.	4f/
1G	2G/	1d	2.b-\
.	2B-\	.	.
.	.	.	4a/
2C/	2c\	2e\	1g
1D	1A	1d	.
.	.	.	2f#i/
=53	=53	=53	=53
2r	0G	2e-i\	0g
2d\	.	2d\	.
2e-i\	.	2c\	.
2d\	.	2d\	.
2c\	1r	2e-i\	2r
2d\	.	2f\	2a/
=54	=54	=54	=54
2G\	1d	2g\	2b-\
2D\	.	2f\	2a/
1r	2e-i\	2c\	2g/
.	2d\	2f\	1a
1r	2c\	2e\	.
.	[2d\	[2f\	2b-\
=55	=55	=55	=55
0.r	2d\]	2f\]	2a/
.	1G	2.g\	2.b-\
.	.	4f\	4a/
.	2B-\	2d\	1dd
.	1A	1e	.
.	.	.	2cc#i\
=56	=56	=56	=56
1.G	1.B-	1d	2.dd\
.	.	.	4cc\
.	.	1r	2b-\
2F\	1.c	.	2a/
1E	.	1r	1g
=57	=57	=57	=57
1.D	1.d	1A	1f
.	.	2B-\	1r
1.C	2.e-i\	2.c\	.
.	.	.	1r
.	4d\	4B-\	.
.	4c\	4A/	.
.	4B-\	4G/	.
=58	=58	=58	=58
2.D\	2A/	1F#	0.r
.	2B-\	.	.
4E\	.	.	.
2F\	2A/	1r	.
1G	2G/	.	.
.	1A	2.c\	.
2F\	.	.	.
.	.	4d\	.
=59	=59	=59	=59
4G\	1G	2e-i\	1b-
4A\	.	.	.
4B-\	.	2d\	.
4c\	.	.	.
2d\	1r	2f\	2a/
2e-i\	.	1g	2g/
1d	1r	.	1a
.	.	2f#i\	.
=60	=60	=60	=60
1r	1G	2.g\	2b-\
.	.	.	4a/
.	.	4f\	4g/
1D	1A	1d	1f
1E	1G	2B-\	2.g/
.	.	[2c\	.
.	.	.	4f/
=61	=61	=61	=61
2C/	0A	2c\]	2e/
2D\	.	1F	2d/
1F	.	.	2c/
.	.	[1.c	1f
1C	1G	.	.
.	.	.	2e/
=62	=62	=62	=62
2c\	1F	2c\]	2f/
2A\	.	2f\	2cc\
2G\	1r	2g\	2b-\
2A\	.	2e\	2.cc\
1F	[1c	1f	.
.	.	.	4b-\
.	.	.	2a/
=63	=63	=63	=63
2E\	2c\]	1g	2g/
2G\	2B-\	.	2d/
2C/	2c\	2G/	2e/
2D\	2A/	2d\	2f/
2E\	2G/	2c\	2g/
2D\	2F/	2d\	2a/
=64	=64	=64	=64
2G\	2G/	2B-\	2b-\
2F\	2A/	2c\	2a/
2G\	2.B-\	2B-\	2.dd\
2.G\	.	2.d\	.
.	4c\	.	4cc\
.	1d	.	2b-\
4F\	.	4e\	.
4E\	.	2f\	2a/
4D\	.	.	.
=65	=65	=65	=65
0C	2.e-i\	1g	2.cc\
.	4d\	.	4b-\
.	4c\	1e	4a/
.	4B-\	.	4g/
.	2c\	.	1g
1D	1A	[1dl	.
.	.	.	2f#i/
=66	=66	=66	=66
0.Gl	0.Gl	0.d]	0.gl
==	==	==	==
*-	*-	*-	*-
!!!RDF**kern: l=long note in original notation
!!!RDF**kern: i=editorial accidental
!!!ENC:	Jesse Rodin 8/11/2013
!!!END:	2013/08/11/
!!!EED:	Jesse Rodin
!!!EEV:	2016/02/08/
!!!ONB:	Translated from MusicXML and edited on 2016/02/08/ by Craig Sapp
!!muse2ps: T^@{OPR}^u^@{ONM}{. }@{OTL}^C^@{COM}^i2I150v85,85,85,150Q16c80
